X:5945
T:Gan Ainm
R:hornpipe
S:Tommy Peoples & Dermot Byrnes
H:
N:
D:Concert, Galway 
Z:Adrian Scahill
M:4/4
L:1/8
K:F
FcAF EBGE|CAFC A,FCA,|B,DFB A,CFA|GFED C2DE|\
FcAF EBGE|CAFC A,FCA,|B,DGB ACEG|F2EG F4:||\
AFcA fcAF|GEcG ecGE|DB,DB dcBA|GFED C2DE|\
FAcf (3ecG Ee|(3dBF Dd (3cAF C=B,|B,DGB ACEG|F2EG F4:||


